X:14
T:Popcorn Behavior
M:4/4
R:reel
C:Jay Ungar (via Susie Lorand)
D:Popcorn Behavior, _Journeywork_
K:Am
(3e^f^g |: a2 e=f ecAc | BABc BEEE | AEAc AEAc | BABc B2 (3e^f^g | \
a2 ef ecAc | BABc BEEE | DFAc dcAF |1 ECDB, A,2 (3e^f^g  \
 :|2 ECDB, A,B,CD | \
|: EA,A,E FA,A,F | EA,A,E D^G,^G,D | A,B,CD ECFA | GECD EFED | \
EA,A,E FA,A,F | ^FA,A,^F =FA,A,F | DFAc dcAF |1 ECDB, A,B,CD \
:|2 ECDB, A,4 ||
